X: 1
T: Hull's Reel
M: 4/4
L: 1/8
Z: 2006 John Chambers <jc:trillian.mit.edu>
R: reel
K: E
ec |\
"E"BE~E2 B2"A"Ac | "E"BE~E2 "A"cBce | "E"BE~E2 B2AB | "A"cBce "B7"fefg || "E"BE~E2 B2"A"Ac |
"E"BE~E2 "A"cBce | "F#m"fgfe c2Bc | "B7"efec Bc :: ef | "E"gB~B2 g2fg | "A"fc~c2 c2Bc |
"F#m"fc~c2 c2Bc | "B7"eB~B2 Bcef || "E"gB~B2 g2fg | "A"fc~c2 c2Bc | "F#m"fgfe c2Bc | "B7"efec Bc :|
